img/icon-tool.svg

<svg width="75" height="61" viewBox="0 0 75 61" xmlns="http://www.w3.org/2000/svg"><path d="M5.039 58.949S5.039 61 6.907 61h27.02s2.001-.184 2.001-1.984V47.942H5.039v11.007zM73.875 8.016H60.387c-.621-2.287-2.071-3.891-3.762-3.891h-7.542v12.75h7.542c1.69 0 3.141-1.604 3.762-3.891h13.488c.575 0 1.042-1.112 1.042-2.484 0-1.372-.467-2.484-1.042-2.484zM2.103 0C.167 0 0 2.041 0 2.041v15.812c0 2.936 2.903 3.002 2.903 3.002h9.007c1.935 0 1.601 1.334 1.601 1.334s-2.469 13.01-2.735 15.211c-.267 2.203-1.868 3.604-1.868 3.604s-2.135 1.201-3.002 1.668c-.867.467-.867 2.201-.867 2.201h30.889v-.734c0-1.467-6.472-3.135-9.073-3.402-2.602-.266-2.068-2.002-2.068-2.002l1.067-7.805h3.002l1.134-7.873h-3.002l.331-2.737 8.609-.131c5.805-.601 10.008-4.07 10.008-4.07V4.109C41.333.84 33.993 0 33.993 0H2.103zM36 4.938v.031c0 .55-.45 1-1 1H5.031c-.55 0-1-.45-1-1v-.031c0-.55.45-1 1-1H35c.55 0 1 .45 1 1z" fill-rule="nonzero" fill="#FFF"/></svg>

<?xml version="1.0" encoding="UTF-8"?>
<svg width="75px" height="61px" viewBox="0 0 75 61" version="1.1" xmlns="http://www.w3.org/2000/svg" xmlns:xlink="http://www.w3.org/1999/xlink">
    <!-- Generator: Sketch 49.3 (51167) - http://www.bohemiancoding.com/sketch -->
    <title>icon-2</title>
    <desc>Created with Sketch.</desc>
    <defs></defs>
    <g id="Pages" stroke="none" stroke-width="1" fill="none" fill-rule="evenodd">
        <g id="Index" transform="translate(-647.000000, -412.000000)" fill="#FFFFFF">
            <g id="item-2" transform="translate(448.000000, 379.000000)">
                <g id="icon-2" transform="translate(199.000000, 33.000000)">
                    <g id="Shape">
                        <path d="M5.039,58.949 C5.039,58.949 5.039,61 6.907,61 L33.927,61 C33.927,61 35.928,60.816 35.928,59.016 L35.928,47.942 L5.039,47.942 L5.039,58.949 Z M73.875,8.016 L60.387,8.016 C59.766,5.729 58.316,4.125 56.625,4.125 L49.083,4.125 L49.083,16.875 L56.625,16.875 C58.315,16.875 59.766,15.271 60.387,12.984 L73.875,12.984 C74.45,12.984 74.917,11.872 74.917,10.5 C74.917,9.128 74.45,8.016 73.875,8.016 Z M2.103,0 C0.167,0 0,2.041 0,2.041 L0,17.853 C0,20.789 2.903,20.855 2.903,20.855 L11.91,20.855 C13.845,20.855 13.511,22.189 13.511,22.189 C13.511,22.189 11.042,35.199 10.776,37.4 C10.509,39.603 8.908,41.004 8.908,41.004 C8.908,41.004 6.773,42.205 5.906,42.672 C5.039,43.139 5.039,44.873 5.039,44.873 L35.928,44.873 L35.928,44.139 C35.928,42.672 29.456,41.004 26.855,40.737 C24.253,40.471 24.787,38.735 24.787,38.735 L25.854,30.93 L28.856,30.93 L29.99,23.057 L26.988,23.057 L27.319,20.32 L35.928,20.189 C41.733,19.588 45.936,16.119 45.936,16.119 L45.936,4.109 C41.333,0.84 33.993,0 33.993,0 L2.103,0 Z M36,4.938 L36,4.969 C36,5.519 35.55,5.969 35,5.969 L5.031,5.969 C4.481,5.969 4.031,5.519 4.031,4.969 L4.031,4.938 C4.031,4.388 4.481,3.938 5.031,3.938 L35,3.938 C35.55,3.938 36,4.388 36,4.938 Z" fill-rule="nonzero"></path>
                    </g>
                </g>
            </g>
        </g>
    </g>
</svg>
